X: 3042
M: 3/4
L: 1/8
K: G
|:\
d2 e2 d2 | c2 (BA) (GA) | A3 G A2 | B6 |
E2 F2 G2 | c2 B2 (cA) | B2 (cB) (AG) | F6 |\
P: The Ground Bass.
K: G clef=bass middle=d
[| g6 | f6 | e6 | d6 | B6 | c6 | d6 | G6 |]\
   y6   y6   y6   y6   y6   y6   y6   y6
